dist/img/common/svg/ic_pinterest.svg

<svg width="46" height="46" viewBox="0 0 46 46" fill="none" xmlns="http://www.w3.org/2000/svg">
<rect width="46" height="46" rx="22.5" fill="#E1306C"/>
<g clip-path="url(#clip0_239_41)">
<path d="M35 23.5C35 30.1895 29.629 35.6094 23 35.6094C21.7613 35.6094 20.571 35.4189 19.4484 35.0674C19.9371 34.2617 20.6677 32.9434 20.9387 31.8936C21.0839 31.3271 21.6839 29.0127 21.6839 29.0127C22.0758 29.7646 23.2177 30.4043 24.4323 30.4043C28.0516 30.4043 30.6597 27.0449 30.6597 22.8701C30.6597 18.8711 27.4226 15.8779 23.2613 15.8779C18.0839 15.8779 15.3306 19.3838 15.3306 23.207C15.3306 24.9844 16.2694 27.1963 17.7645 27.8994C17.9919 28.0068 18.1129 27.958 18.1661 27.7383C18.2048 27.5723 18.4081 26.7471 18.5 26.3662C18.529 26.2441 18.5145 26.1367 18.4177 26.0195C17.929 25.4092 17.5323 24.2959 17.5323 23.2559C17.5323 20.585 19.5355 18.002 22.9516 18.002C25.8984 18.002 27.9645 20.0283 27.9645 22.9287C27.9645 26.2051 26.3242 28.4756 24.1903 28.4756C23.0145 28.4756 22.129 27.4941 22.4145 26.2881C22.7532 24.8477 23.4065 23.2949 23.4065 22.2549C23.4065 21.3271 22.9129 20.5508 21.8871 20.5508C20.6823 20.5508 19.7145 21.8057 19.7145 23.4902C19.7145 24.5645 20.0726 25.2871 20.0726 25.2871C20.0726 25.2871 18.8871 30.3555 18.6694 31.3027C18.4274 32.3477 18.5242 33.8223 18.6258 34.7793C14.1645 33.0166 11 28.6318 11 23.5C11 16.8105 16.371 11.3906 23 11.3906C29.629 11.3906 35 16.8105 35 23.5Z" fill="white"/>
</g>
<defs>
<clipPath id="clip0_239_41">
<rect width="24" height="25" fill="white" transform="translate(11 11)"/>
</clipPath>
</defs>
</svg>

<svg width="46" height="46" viewBox="0 0 46 46" fill="none" xmlns="http://www.w3.org/2000/svg"><rect width="46" height="46" rx="22.5" fill="#E1306C"/><g clip-path="url(#clip0_239_41)"><path d="M35 23.5c0 6.69-5.371 12.11-12 12.11-1.239 0-2.429-.191-3.552-.543.49-.805 1.22-2.124 1.49-3.173l.746-2.881c.392.752 1.534 1.391 2.748 1.391 3.62 0 6.228-3.36 6.228-7.534 0-3.999-3.237-6.992-7.399-6.992-5.177 0-7.93 3.506-7.93 7.329 0 1.777.938 3.99 2.434 4.692.227.108.348.059.401-.16.039-.167.242-.992.334-1.373a.365.365 0 00-.082-.346c-.489-.61-.886-1.724-.886-2.764 0-2.671 2.003-5.254 5.42-5.254 2.946 0 5.012 2.026 5.012 4.927 0 3.276-1.64 5.547-3.774 5.547-1.175 0-2.061-.982-1.776-2.188.34-1.44.992-2.993.992-4.033 0-.928-.493-1.704-1.519-1.704-1.205 0-2.172 1.255-2.172 2.94 0 1.073.358 1.796.358 1.796s-1.186 5.069-1.404 6.016c-.242 1.045-.145 2.52-.043 3.476C14.164 33.017 11 28.632 11 23.5c0-6.69 5.371-12.11 12-12.11s12 5.42 12 12.11z" fill="#fff"/></g><defs><clipPath id="clip0_239_41"><path fill="#fff" transform="translate(11 11)" d="M0 0h24v25H0z"/></clipPath></defs></svg>
